src/assets/dark/IconRewardsInactive.svg

<svg width="44" height="44" viewBox="0 0 44 44" fill="none" xmlns="http://www.w3.org/2000/svg">
<path fill-rule="evenodd" clip-rule="evenodd" d="M22.0317 43.1172C33.9059 43.1172 43.5317 33.4913 43.5317 21.6172C43.5317 9.74306 33.9059 0.117188 22.0317 0.117188C10.1576 0.117188 0.531738 9.74306 0.531738 21.6172C0.531738 33.4913 10.1576 43.1172 22.0317 43.1172Z" fill="url(#paint0_linear)"/>
<path d="M15.5424 17.1023C17.2912 17.6986 19.6095 18.027 22.0702 18.027C24.5308 18.027 26.8491 17.6986 28.598 17.1023C30.462 16.4668 31.4885 15.5751 31.4885 14.5916C31.4885 13.6081 30.462 12.7164 28.598 12.0808C26.8491 11.4847 24.5308 11.1562 22.0702 11.1562C19.6095 11.1562 17.2912 11.4847 15.5424 12.0809C13.6784 12.7164 12.6519 13.6081 12.6519 14.5916C12.6519 15.5752 13.6784 16.4668 15.5424 17.1023Z" fill="#BDBAD4"/>
<path fill-rule="evenodd" clip-rule="evenodd" d="M30.846 18.4141C30.6983 18.4141 30.5383 18.464 30.3566 18.5668C30.0885 18.7186 29.7499 18.835 29.3915 18.9585L29.2875 18.9943C27.3305 19.671 24.7673 20.0437 22.0702 20.0437C19.3731 20.0437 16.8099 19.671 14.8529 18.9943C14.2994 18.803 14.1456 18.7428 13.9411 18.6377C13.7332 18.5287 13.5397 18.4734 13.3658 18.4734C12.9891 18.4734 12.7578 18.7261 12.6955 18.9766C12.6665 19.0934 12.6519 19.2125 12.6519 19.3307C12.6519 20.3281 13.6784 21.2323 15.5423 21.8768C17.2912 22.4814 19.6095 22.8144 22.0701 22.8144C24.5308 22.8144 26.8491 22.4814 28.598 21.8768C30.462 21.2323 31.4885 20.3281 31.4885 19.3307C31.4885 19.1754 31.4632 19.0195 31.4126 18.8652C31.2841 18.4727 31.0025 18.4141 30.846 18.4141Z" fill="#7465BD" fill-opacity="0.8"/>
<path fill-rule="evenodd" clip-rule="evenodd" d="M30.8461 23.0449C30.6984 23.0449 30.5384 23.0949 30.3568 23.1976C30.0889 23.3492 29.7506 23.4656 29.3925 23.589L29.2876 23.6251C27.3305 24.3018 24.7673 24.6744 22.0703 24.6744C19.3732 24.6744 16.8101 24.3018 14.8529 23.6251C14.2994 23.4337 14.1456 23.3734 13.9411 23.2684C13.7332 23.1595 13.5397 23.1041 13.3658 23.1041C12.9891 23.1041 12.7578 23.3569 12.6955 23.6074C12.6665 23.7241 12.6519 23.8432 12.6519 23.9614C12.6519 24.9588 13.6784 25.863 15.5423 26.5076C17.2912 27.1122 19.6095 27.4453 22.0701 27.4453C24.5308 27.4453 26.8491 27.1122 28.598 26.5076C30.462 25.8631 31.4885 24.9588 31.4885 23.9614C31.4885 23.8061 31.4632 23.6502 31.4126 23.496C31.2843 23.1036 31.0026 23.0449 30.8461 23.0449Z" fill="#7465BD" fill-opacity="0.8"/>
<path fill-rule="evenodd" clip-rule="evenodd" d="M30.846 27.6777C30.6983 27.6777 30.5383 27.7276 30.3567 27.8304C30.0883 27.9822 29.7495 28.0988 29.3907 28.2223L29.2875 28.2579C27.3305 28.9346 24.7673 29.3073 22.0702 29.3073C19.3731 29.3073 16.8099 28.9346 14.8529 28.2579C14.2994 28.0666 14.1456 28.0064 13.9411 27.9013C13.7332 27.7923 13.5397 27.737 13.3658 27.737C12.9891 27.737 12.7578 27.9897 12.6955 28.2402C12.6665 28.357 12.6519 28.4761 12.6519 28.5943C12.6519 29.5917 13.6784 30.4959 15.5423 31.1404C17.2912 31.7451 19.6095 32.0781 22.0701 32.0781C24.5308 32.0781 26.8491 31.7451 28.598 31.1404C30.462 30.496 31.4885 29.5918 31.4885 28.5943C31.4885 28.439 31.4632 28.2831 31.4127 28.1289C31.2842 27.7363 31.0025 27.6777 30.846 27.6777Z" fill="#7465BD" fill-opacity="0.8"/>
<defs>
<linearGradient id="paint0_linear" x1="0.531739" y1="8.79327" x2="45.3781" y2="40.5232" gradientUnits="userSpaceOnUse">
<stop stop-color="#3B3381"/>
<stop offset="1" stop-color="#322773"/>
</linearGradient>
</defs>
</svg>

<svg width="44" height="44" fill="none" xmlns="http://www.w3.org/2000/svg"><path fill-rule="evenodd" clip-rule="evenodd" d="M22.032 43.117c11.874 0 21.5-9.626 21.5-21.5s-9.626-21.5-21.5-21.5-21.5 9.626-21.5 21.5 9.626 21.5 21.5 21.5z" fill="url(#paint0_linear)"/><path d="M15.542 17.102c1.75.597 4.068.925 6.528.925s4.78-.328 6.528-.925c1.864-.635 2.89-1.527 2.89-2.51 0-.984-1.026-1.876-2.89-2.511-1.749-.596-4.067-.925-6.528-.925-2.46 0-4.779.329-6.528.925-1.864.635-2.89 1.527-2.89 2.51 0 .984 1.026 1.876 2.89 2.511z" fill="#BDBAD4"/><path fill-rule="evenodd" clip-rule="evenodd" d="M30.846 18.414c-.148 0-.308.05-.49.153-.268.152-.606.268-.965.392l-.103.035c-1.957.677-4.52 1.05-7.218 1.05-2.697 0-5.26-.373-7.217-1.05-.554-.191-.707-.251-.912-.356a1.26 1.26 0 00-.575-.165.671.671 0 00-.67.504 1.47 1.47 0 00-.044.354c0 .997 1.026 1.901 2.89 2.546 1.75.604 4.068.937 6.528.937s4.78-.333 6.528-.937c1.864-.645 2.89-1.549 2.89-2.546a1.49 1.49 0 00-.075-.466c-.129-.392-.41-.45-.567-.45zM30.846 23.045c-.148 0-.308.05-.49.153-.267.151-.605.268-.964.391l-.104.036c-1.957.677-4.52 1.05-7.218 1.05-2.697 0-5.26-.373-7.217-1.05-.554-.191-.707-.252-.912-.357a1.261 1.261 0 00-.575-.164.671.671 0 00-.67.503 1.47 1.47 0 00-.044.354c0 .998 1.026 1.902 2.89 2.547 1.75.604 4.068.937 6.528.937s4.78-.333 6.528-.937c1.864-.645 2.89-1.55 2.89-2.547 0-.155-.025-.31-.075-.465-.129-.392-.41-.451-.567-.451zM30.846 27.678c-.148 0-.308.05-.49.152-.268.152-.607.269-.965.392l-.103.036c-1.957.677-4.52 1.05-7.218 1.05-2.697 0-5.26-.373-7.217-1.05-.554-.191-.707-.252-.912-.357a1.26 1.26 0 00-.575-.164.671.671 0 00-.67.503 1.47 1.47 0 00-.044.354c0 .998 1.026 1.902 2.89 2.546 1.75.605 4.068.938 6.528.938s4.78-.333 6.528-.938c1.864-.644 2.89-1.548 2.89-2.546a1.49 1.49 0 00-.075-.465c-.129-.393-.41-.451-.567-.451z" fill="#7465BD" fill-opacity=".8"/><defs><linearGradient id="paint0_linear" x1=".532" y1="8.793" x2="45.378" y2="40.523" gradientUnits="userSpaceOnUse"><stop stop-color="#3B3381"/><stop offset="1" stop-color="#322773"/></linearGradient></defs></svg>
